X:15480
T:Sir David Davidson of Cantray
C:John Lowe
A:Scotland
S:Buddy McMaster
M:C|
L:1/8
K:D
(A2 | d2 f) ud cdBd | AdFd BecA | d2fd cdAF| GEec d2 :|
(fg | a)fdf afba | gfed cdef | gfed cbag | fed(c d2) vduf |
afdf afba | gfed ceAG | FAdc  Bbge | cAec d2 ||
